X:1
T:Queste iacere
T:Queste iacere
T:Francesca Caccini
T:Source : Primo libro delle Musische a 1 e 2 voci---Firenze---Z.Pignoni---1618. Editor : André Vierendeels (25/08/15).
T:Notes : Original clefs : C1, F4 Figures in BC are notated in original print See also part 1:"Che fai misero", p.2 : "Senti l'ira del Ciel" and p.4: "Prendi vita". 
T:Sonetto, part 3
C:Francesca Caccini
%%score 1 2
L:1/8
Q:1/4=120
M:4/4
K:C
V:1 treble nm="Soprano" snm="S"
V:2 bass nm="BC" snm="BC"
V:1
 z4 c3 B | A6 G^G | A3 B/c/ A4 | z2 A2 B>c d2- | d3 G G4 | G4 z2 c>c | c2 cB B>c d2- | %7
w: Que- ste|ia- ce- re|tiem- * * pie|e que- * *|* sto cri-|ne, que- ste|guan- ce che ve- * *|
 dB B>^F ^G4 | ^G4 z B2 B | ^c>d e4 =c^c | d2 A4 AB | B8 | A8 | z2 c^c c>d e2- | e2 AA B2 B2 | %15
w: * di'e san- gi'e mor-|te, sol di|ren- * * der- ti|sal- vo'han- no per|fi-|ne,|sol di ren- * *|* der- ti sal- vo|
 B>c d2- d/ z/ .c/TBA/G/^F/ | G/E/^F/^G/ A/B/c/d/ e4- | e3 B/B/ B4 | A8 |] %19
w: han- * * * * * * * *||* no per fi-|ne.|
V:2
"^-natural" A,,8 |"^6""^11""^#10" F,4 E,2 E,D, |"^6""^5""^11" ^C,2 C,2 D,4 |"^#10" D,4 D,4 | %4
"^6""^5" B,,6 B,,2 |"^11""^10" C,4 C,4 |"^6" F,4 F,4 | D,4 E,4 | E,4 E,4 | ^G,4 A,4 | ^F,4 ^C,4 | %11
 E,8 | A,,8 | A,,4 A,4 | ^F,4 G,4 |"^6" B,,4 D,4 | E,4 ^C,2 ^G,2 | A,2 ^D,2 E,4 | A,,8 |] %19

